images/global/icons/experiential/overdose.svg

<svg xmlns="http://www.w3.org/2000/svg" viewBox="0 0 276 137"><path fill="#FFF" stroke="#091F2F" stroke-width="3" stroke-linecap="round" stroke-miterlimit="10" d="M95.7 56.2h16.9m0-8.5h58.2v15.9h-58.2zm58.2-10.2v38.1m0-23.6h11.3v6.7h-11.3zm11.3-6.8v22m-60-19.5v5.7m8.1-5.7v5.7m8.2-5.7v8.8m8.1-8.8v5.7m8.1-5.7v5.7m8.2-5.7v8.8m-51.2 32.3c0-3.1 2.5-5.7 5.7-5.7h19.2c3.1 0 5.7 2.5 5.7 5.7 0 3.1-2.6 5.7-5.7 5.7h-19.2c-3.1 0-5.7-2.6-5.7-5.7z"/><path fill="#FFF" stroke="#091F2F" stroke-width="3" stroke-linecap="round" stroke-miterlimit="10" d="M126.9 83.1h-9.1c-3.4 0-6.1 2.5-6.1 5.7 0 3.1 2.8 5.7 6.1 5.7h9.1V83.1z"/><ellipse transform="rotate(-45.001 158.297 89.096)" fill="#FFF" stroke="#091F2F" stroke-width="3" stroke-linecap="round" stroke-miterlimit="10" cx="158.3" cy="89.1" rx="6.8" ry="6.8"/><path fill="none" stroke="#091F2F" stroke-width="3" stroke-linecap="round" stroke-miterlimit="10" d="M157.3 83l2.8 11.8"/><ellipse transform="rotate(-67.151 179.477 90.096)" fill="#091F2F" cx="179.5" cy="90.1" rx="5" ry="5"/><circle fill="#091F2F" cx="99.3" cy="90.1" r="5"/></svg>

<svg xmlns="http://www.w3.org/2000/svg" viewBox="0 0 276 137"><path fill="#FFF" stroke="#091F2F" stroke-width="3" stroke-linecap="round" stroke-miterlimit="10" d="M95.7 56.2h16.9M112.6 47.7h58.2v15.9h-58.2zM170.8 37.5v38.1M170.8 52h11.3v6.7h-11.3zM182.1 45.2v22M122.1 47.7v5.7M130.2 47.7v5.7M138.4 47.7v8.8M146.5 47.7v5.7M154.6 47.7v5.7M162.8 47.7v8.8M111.6 88.8c0-3.1 2.5-5.7 5.7-5.7h19.2c3.1 0 5.7 2.5 5.7 5.7 0 3.1-2.6 5.7-5.7 5.7h-19.2c-3.1 0-5.7-2.6-5.7-5.7z"/><path fill="#FFF" stroke="#091F2F" stroke-width="3" stroke-linecap="round" stroke-miterlimit="10" d="M126.9 83.1h-9.1c-3.4 0-6.1 2.5-6.1 5.7 0 3.1 2.8 5.7 6.1 5.7h9.1V83.1z"/><ellipse transform="rotate(-45.001 158.297 89.096)" fill="#FFF" stroke="#091F2F" stroke-width="3" stroke-linecap="round" stroke-miterlimit="10" cx="158.3" cy="89.1" rx="6.8" ry="6.8"/><path fill="none" stroke="#091F2F" stroke-width="3" stroke-linecap="round" stroke-miterlimit="10" d="M157.3 83l2.8 11.8"/><ellipse transform="rotate(-67.151 179.477 90.096)" fill="#091F2F" cx="179.5" cy="90.1" rx="5" ry="5"/><circle fill="#091F2F" cx="99.3" cy="90.1" r="5"/></svg>
